packages/tokens/icons/community/size24Px.svg

<svg viewBox="0 0 24 24" fill="none" xmlns="http://www.w3.org/2000/svg" width="1em" height="1em"><path d="M19.5 15.2672C19.5 16.1077 18.8248 16.7825 18 16.7825C17.1752 16.7825 16.5 16.1077 16.5 15.2672C16.5 14.4268 17.1752 13.752 18 13.752C18.8248 13.752 19.5 14.4268 19.5 15.2672Z" stroke="currentColor" stroke-linecap="round" stroke-linejoin="round"/><path d="M17.5 18.5H19.5C20.6046 18.5 21.5 19.3955 21.5 20.5C21.5 20.8696 21.5 21.2251 21.5 21.5" stroke="currentColor" stroke-linecap="round"/><path d="M4.5 15.2672C4.5 16.1077 5.17515 16.7825 6 16.7825C6.82485 16.7825 7.5 16.1077 7.5 15.2672C7.5 14.4268 6.82485 13.752 6 13.752C5.17515 13.752 4.5 14.4268 4.5 15.2672Z" stroke="currentColor" stroke-linecap="round" stroke-linejoin="round"/><path d="M6.5 18.5H4.5C3.39543 18.5 2.5 19.3955 2.5 20.5C2.5 20.8696 2.5 21.2251 2.5 21.5" stroke="currentColor" stroke-linecap="round"/><path d="M8.5 21.5V20.5C8.5 19.3954 9.39543 18.5 10.5 18.5H13.5C14.6046 18.5 15.5 19.3954 15.5 20.5V21.5" stroke="currentColor" stroke-linecap="round" stroke-linejoin="round"/><path d="M14 14.7633C14 15.882 13.101 16.7824 12 16.7824C10.899 16.7824 10 15.882 10 14.7633C10 13.6446 10.899 12.7443 12 12.7443C13.101 12.7443 14 13.6446 14 14.7633Z" stroke="currentColor" stroke-linecap="round" stroke-linejoin="round"/><path d="M21.5 6.78626V12.1337C21.5 12.5236 21.1839 12.8397 20.794 12.8397C20.6058 12.8397 20.4254 12.7646 20.2929 12.631L19.7933 12.1276C19.6056 11.9385 19.3501 11.8321 19.0836 11.8321H14.5C13.9477 11.8321 13.5 11.3843 13.5 10.8321V6.78625C13.5 6.23397 13.9477 5.78625 14.5 5.78625L20.5 5.78625C21.0523 5.78625 21.5 6.23397 21.5 6.78626Z" stroke="currentColor"/><path d="M16.5 4.27476V3.76331C16.5 3.21102 16.0523 2.76331 15.5 2.76331L4.5 2.76331C3.94772 2.76331 3.5 3.21102 3.5 3.76331L3.5 10.832C3.5 11.3843 3.94772 11.832 4.5 11.832H4.58356C4.85009 11.832 5.1056 11.7256 5.29335 11.5364L5.70665 11.12C5.8944 10.9308 6.14991 10.8244 6.41644 10.8244L11.5 10.8244" stroke="currentColor" stroke-linecap="round"/><circle cx="1" cy="1" r="0.5" transform="matrix(-1 0 0 1 9 5.24426)" stroke="currentColor"/><path d="M7.51001 6.36426L8.51001 8.09631" stroke="currentColor" stroke-linecap="round"/><circle cx="1" cy="1" r="0.5" transform="matrix(-1 0 0 1 12 5.24426)" stroke="currentColor"/><path d="M10.51 6.36426L11.51 8.09631" stroke="currentColor" stroke-linecap="round"/></svg>

<svg xmlns="http://www.w3.org/2000/svg" fill="none" viewBox="0 0 24 24" width="1em" height="1em"><path stroke="currentColor" stroke-linecap="round" stroke-linejoin="round" d="M19.5 15.267c0 .84-.675 1.515-1.5 1.515s-1.5-.674-1.5-1.515c0-.84.675-1.515 1.5-1.515s1.5.675 1.5 1.515Z"/><path stroke="currentColor" stroke-linecap="round" d="M17.5 18.5h2a2 2 0 0 1 2 2v1"/><path stroke="currentColor" stroke-linecap="round" stroke-linejoin="round" d="M4.5 15.267c0 .84.675 1.515 1.5 1.515s1.5-.674 1.5-1.515c0-.84-.675-1.515-1.5-1.515s-1.5.675-1.5 1.515Z"/><path stroke="currentColor" stroke-linecap="round" d="M6.5 18.5h-2a2 2 0 0 0-2 2v1"/><path stroke="currentColor" stroke-linecap="round" stroke-linejoin="round" d="M8.5 21.5v-1a2 2 0 0 1 2-2h3a2 2 0 0 1 2 2v1M14 14.763a2.01 2.01 0 0 1-2 2.02c-1.101 0-2-.901-2-2.02a2.01 2.01 0 0 1 2-2.019c1.101 0 2 .9 2 2.02Z"/><path stroke="currentColor" d="M21.5 6.786v5.348a.706.706 0 0 1-1.207.497l-.5-.503a1 1 0 0 0-.71-.296H14.5a1 1 0 0 1-1-1V6.786a1 1 0 0 1 1-1h6a1 1 0 0 1 1 1Z"/><path stroke="currentColor" stroke-linecap="round" d="M16.5 4.275v-.512a1 1 0 0 0-1-1h-11a1 1 0 0 0-1 1v7.069a1 1 0 0 0 1 1h.084a1 1 0 0 0 .71-.296l.413-.416a1 1 0 0 1 .71-.296H11.5"/><circle cx="1" cy="1" r=".5" stroke="currentColor" transform="matrix(-1 0 0 1 9 5.244)"/><path stroke="currentColor" stroke-linecap="round" d="m7.51 6.364 1 1.732"/><circle cx="1" cy="1" r=".5" stroke="currentColor" transform="matrix(-1 0 0 1 12 5.244)"/><path stroke="currentColor" stroke-linecap="round" d="m10.51 6.364 1 1.732"/></svg>
